src/assets/buttons/reddit.svg

<svg height="55" viewBox="0 0 55 55" width="55" xmlns="http://www.w3.org/2000/svg"><g fill="none"><rect fill="#141414" height="55" rx="2" width="55"/><path d="m32.3492383 35.8738512c.1321919-.1321918.2952285-.1982878.4935163-.1982878s.3613245.066096.4935163.1982878c.1321919.1321918.1982878.2996349.1982878.5067355 0 .2071005-.0660959.3745436-.1982878.5067354-1.2161651 1.1985397-3.1681984 1.7978095-5.8472869 1.7978095h-.0572831c-2.6790886 0-4.6179026-.5992698-5.8208486-1.7978095-.1498174-.1321918-.2247261-.2996349-.2247261-.5067354 0-.2071006.0749087-.3745437.2247261-.5067355.1321918-.1321918.2952285-.1982878.4935163-.1982878s.3613245.066096.4935163.1982878c.9165303.9561879 2.5292711 1.4320786 4.833816 1.4320786h.0572831c2.2825129 0 3.9040664-.4758907 4.8602543-1.4320786zm-7.8433841-6.1865793c0 .6918041-.2423518 1.2910738-.7314617 1.7978093s-1.0795669.7579001-1.771371.7579001-1.2822611-.2511646-1.771371-.7579001-.7314617-1.1060052-.7314617-1.7978093c0-.6918042.2423518-1.2822612.7314617-1.7713711s1.0795669-.7314616 1.771371-.7314616 1.2822611.2423517 1.771371.7314616.7314617 1.0795669.7314617 1.7713711zm18.2733224.480297c.656553-.2643837 1.1897268-.6873977 1.6039281-1.2778547.4142011-.590457.6168953-1.2514163.6168953-1.982878 0-.9561878-.3392925-1.7757774-1.0134709-2.4587687-.6741786-.6829913-1.4893618-1.0266902-2.4455497-1.0266902-1.1236308 0-2.0445674.4494524-2.7539972 1.3483571-2.8289059-2.00491-6.3452096-3.084477-10.5445046-3.2342944l2.3353897-7.4512149 5.7900037 1.3792019c.0176257.9385622.3613245 1.7317133 1.0266902 2.3882663.6653658.656553 1.458517.9826262 2.3750472.9826262.9385623 0 1.7449327-.3304796 2.4191112-.9958454.6741785-.6653657 1.0134711-1.4673297 1.0134711-2.405892 0-.9385622-.3392926-1.7449326-1.0134711-2.4191112-.6741785-.6741784-1.4805489-1.0134709-2.4191112-1.0134709-.6741785 0-1.2954802.1938814-1.8550925.5772378-.5640187.3833564-.9826262.8856855-1.2646355 1.5025809l-6.3804608-1.5202064c-.167443-.0396577-.3304797-.0132192-.4935163.0705023-.1586303.0837214-.2687901.2203198-.3216668.4097948l-2.6702758 8.4911242c-4.199295.0749088-7.7684754 1.1324436-10.7119476 3.1770112-.6741786-.8063704-1.5466449-1.2073524-2.6129926-1.2073524-.9561878 0-1.771371.3436989-2.4455496 1.0266903-.6741785.6829913-1.0134709 1.5025808-1.0134709 2.4587687 0 .6918041.1806622 1.326325.5463931 1.8991564.3657307.5728314.859247.9958455 1.4761425 1.2778547-.1321919.467078-.1982878.9738134-.1982878 1.5202065 0 1.837467.6918041 3.5383356 2.0798187 5.102606 1.3880145 1.5642705 3.2739519 2.8024677 5.6666247 3.7101851 2.3882664.9077176 5.0012589 1.3615762 7.8301648 1.3615762 2.8112804 0 5.4110539-.4538586 7.8037266-1.3615762 2.3882664-.9077174 4.2786101-2.1459146 5.6666248-3.7101851 1.3880146-1.5642704 2.0798187-3.265139 2.0798187-5.102606 0-.5067355-.0572832-1.0090645-.1718495-1.5158001zm-9.8394813-2.9831297c.6918041 0 1.2822611.2423517 1.771371.7314616s.7314617 1.0795669.7314617 1.7713711c0 .6918041-.2423518 1.2910738-.7314617 1.7978093s-1.0795669.7579001-1.771371.7579001-1.2822611-.2511646-1.771371-.7579001-.7314616-1.1060052-.7314616-1.7978093c0-.6918042.2423517-1.2822612.7314616-1.7713711.4891099-.4847035 1.0795669-.7314616 1.771371-.7314616z" fill="#fff"/></g></svg>

<svg xmlns="http://www.w3.org/2000/svg" width="55" height="55" viewBox="0 0 55 55">
  <g fill="none">
    <rect width="55" height="55" fill="#141414" rx="2"/>
    <path fill="#FFF" d="M32.3492383,35.8738512 C32.4814302,35.7416594 32.6444668,35.6755634 32.8427546,35.6755634 C33.0410424,35.6755634 33.2040791,35.7416594 33.3362709,35.8738512 C33.4684628,36.006043 33.5345587,36.1734861 33.5345587,36.3805867 C33.5345587,36.5876872 33.4684628,36.7551303 33.3362709,36.8873221 C32.1201058,38.0858618 30.1680725,38.6851316 27.488984,38.6851316 L27.4317009,38.6851316 C24.7526123,38.6851316 22.8137983,38.0858618 21.6108523,36.8873221 C21.4610349,36.7551303 21.3861262,36.5876872 21.3861262,36.3805867 C21.3861262,36.1734861 21.4610349,36.006043 21.6108523,35.8738512 C21.7430441,35.7416594 21.9060808,35.6755634 22.1043686,35.6755634 C22.3026564,35.6755634 22.4656931,35.7416594 22.5978849,35.8738512 C23.5144152,36.8300391 25.127156,37.3059298 27.4317009,37.3059298 L27.488984,37.3059298 C29.7714969,37.3059298 31.3930504,36.8300391 32.3492383,35.8738512 Z M24.5058542,29.6872719 C24.5058542,30.379076 24.2635024,30.9783457 23.7743925,31.4850812 C23.2852826,31.9918167 22.6948256,32.2429813 22.0030215,32.2429813 C21.3112174,32.2429813 20.7207604,31.9918167 20.2316505,31.4850812 C19.7425406,30.9783457 19.5001888,30.379076 19.5001888,29.6872719 C19.5001888,28.9954677 19.7425406,28.4050107 20.2316505,27.9159008 C20.7207604,27.4267909 21.3112174,27.1844392 22.0030215,27.1844392 C22.6948256,27.1844392 23.2852826,27.4267909 23.7743925,27.9159008 C24.2635024,28.4050107 24.5058542,28.9954677 24.5058542,29.6872719 Z M42.7791766,30.1675689 C43.4357296,29.9031852 43.9689034,29.4801712 44.3831047,28.8897142 C44.7973058,28.2992572 45,27.6382979 45,26.9068362 C45,25.9506484 44.6607075,25.1310588 43.9865291,24.4480675 C43.3123505,23.7650762 42.4971673,23.4213773 41.5409794,23.4213773 C40.4173486,23.4213773 39.496412,23.8708297 38.7869822,24.7697344 C35.9580763,22.7648244 32.4417726,21.6852574 28.2424776,21.53544 L30.5778673,14.0842251 L36.367871,15.463427 C36.3854967,16.4019892 36.7291955,17.1951403 37.3945612,17.8516933 C38.059927,18.5082463 38.8530782,18.8343195 39.7696084,18.8343195 C40.7081707,18.8343195 41.5145411,18.5038399 42.1887196,17.8384741 C42.8628981,17.1731084 43.2021907,16.3711444 43.2021907,15.4325821 C43.2021907,14.4940199 42.8628981,13.6876495 42.1887196,13.0134709 C41.5145411,12.3392925 40.7081707,12 39.7696084,12 C39.0954299,12 38.4741282,12.1938814 37.9145159,12.5772378 C37.3504972,12.9605942 36.9318897,13.4629233 36.6498804,14.0798187 L30.2694196,12.5596123 C30.1019766,12.5199546 29.9389399,12.5463931 29.7759033,12.6301146 C29.617273,12.713836 29.5071132,12.8504344 29.4542365,13.0399094 L26.7839607,21.5310336 C22.5846657,21.6059424 19.0154853,22.6634772 16.0720131,24.7080448 C15.3978345,23.9016744 14.5253682,23.5006924 13.4590205,23.5006924 C12.5028327,23.5006924 11.6876495,23.8443913 11.0134709,24.5273827 C10.3392924,25.210374 10,26.0299635 10,26.9861514 C10,27.6779555 10.1806622,28.3124764 10.5463931,28.8853078 C10.9121238,29.4581392 11.4056401,29.8811533 12.0225356,30.1631625 C11.8903437,30.6302405 11.8242478,31.1369759 11.8242478,31.683369 C11.8242478,33.520836 12.5160519,35.2217046 13.9040665,36.785975 C15.292081,38.3502455 17.1780184,39.5884427 19.5706912,40.4961601 C21.9589576,41.4038777 24.5719501,41.8577363 27.400856,41.8577363 C30.2121364,41.8577363 32.8119099,41.4038777 35.2045826,40.4961601 C37.592849,39.5884427 39.4831927,38.3502455 40.8712074,36.785975 C42.259222,35.2217046 42.9510261,33.520836 42.9510261,31.683369 C42.9510261,31.1766335 42.8937429,30.6743045 42.7791766,30.1675689 Z M32.9396953,27.1844392 C33.6314994,27.1844392 34.2219564,27.4267909 34.7110663,27.9159008 C35.2001762,28.4050107 35.442528,28.9954677 35.442528,29.6872719 C35.442528,30.379076 35.2001762,30.9783457 34.7110663,31.4850812 C34.2219564,31.9918167 33.6314994,32.2429813 32.9396953,32.2429813 C32.2478912,32.2429813 31.6574342,31.9918167 31.1683243,31.4850812 C30.6792144,30.9783457 30.4368627,30.379076 30.4368627,29.6872719 C30.4368627,28.9954677 30.6792144,28.4050107 31.1683243,27.9159008 C31.6574342,27.4311973 32.2478912,27.1844392 32.9396953,27.1844392 Z"/>
  </g>
</svg>
